X:3
T:Caravan
C:Duke Ellington
L:1/8
M:C
I:linebreak $
K:Ab
"Gø" c8 |"C7" z dcG Bc=eG |"Gø" B8 |"C7" z cdc dc=BG |$"Gø" B8 |"C7" z c=B_B =A_AG_G |
"Fm" F8 |"_Fine" z8 :|$[K:F]"F7" f4 d2 c2 | G4 z FEF |"Bb7" c4 G2 F2 | C8 ||$[K:Eb]"Eb7" e4 c2 B2 |
F4 G2 E2 ||[K:Ab]"Ab" c2 A4 BA |"C7" G2"_D.C. al Fine" G6 ||

